silverware-fork-knife.svg

<svg fill="currentColor" viewBox="0 0 24 24"><path d="M11 9H9V2H7v7H5V2H3v7c0 2.12 1.66 3.84 3.75 3.97V22h2.5v-9.03C11.34 12.84 13 11.12 13 9V2h-2zm5-3v8h2.5v8H21V2c-2.76 0-5 2.24-5 4"/></svg>

<svg  viewBox="0 0 24 24" fill="currentColor"><path  d="M11,9H9V2H7V9H5V2H3V9C3,11.12 4.66,12.84 6.75,12.97V22H9.25V12.97C11.34,12.84 13,11.12 13,9V2H11V9M16,6V14H18.5V22H21V2C18.24,2 16,4.24 16,6Z"/></svg>
